X:1
T:Title
%%score ( 1 2 ) ( 3 4 )
L:1/8
Q:1/4=93
M:6/8
K:F
V:1 treble nm="Grand Piano, Soprano"
V:2 treble 
V:3 bass nm="Choir Pad, Little Birds Are Singing"
V:4 bass 
V:1
 [CF]2 [CF] FG[FA] | c2- [Dc] [CG]3 | z3 .F3 | c-[Ec-][Dc-] [Ec]3 | [FA]2 [FA] AB[Fc] | %5
w: By~C.~L.~Naylor * * * *|||||
 [Fd]3 [FG]3 | [FA]2 [Fc] [EA]2 [EG] | [CF]6- | [CF]3 z3 |] %9
w: ||||
V:2
 z3 .C3 | .E3 z3 | [CF]2 [CF] C-[CG][FA] | .F3 z3 | z3 .F3 | x6 | x6 | x6 | x6 |] %9
V:3
 [F,A,]2 [C,A,] [F,A,]2 [C,A,] | B,3 B,3 | [F,A,]2 [C,A,] A,2 [F,A,] | B,6 | .C3 ._E3 | %5
 [B,D]3 [B,D]3 | [C,C]2 [C,A,] [C,C]2 [C,B,] | [F,A,]6- | [F,A,]3 z3 |] %9
V:4
 x6 | G,2 C, E,2 C, | x6 | G,3 C,3 | F,-[F,A,][F,C] F,G,[A,_E] | x6 | x6 | x6 | x6 |] %9

